img/team-activities.svg

<svg viewBox="0 0 120 120" xmlns="http://www.w3.org/2000/svg"><g fill="none" fill-rule="evenodd" transform="translate(1 25)" stroke-width="2" stroke="#a25cc6"><g fill="#e3cdee"><path d="m20.872 27.973c-11.528 0-20.872 9.344-20.872 20.872 0 11.526 9.344 20.871 20.872 20.871 11.527 0 20.871-9.345 20.871-20.871 0-11.528-9.345-20.872-20.871-20.872m0 35.48c-7.98 0-14.448-6.468-14.448-14.448 0-7.979 6.468-14.447 14.448-14.447 7.979 0 14.448 6.469 14.448 14.447-.001 7.98-6.469 14.448-14.448 14.448"/><path d="m97.13 27.973c-11.527 0-20.872 9.345-20.872 20.872 0 11.526 9.345 20.871 20.872 20.871 11.526 0 20.871-9.345 20.871-20.871 0-11.528-9.345-20.872-20.871-20.872m0 35.48c-7.979 0-14.449-6.468-14.449-14.448 0-7.979 6.47-14.447 14.449-14.447 7.979 0 14.448 6.469 14.448 14.447 0 7.98-6.47 14.448-14.448 14.448"/></g><path d="m99.12 48.03c-2.295-4.32-9.766-18.429-9.766-18.429-2.384-4.449-4.762-8.904-7.142-13.354.661-1.632 1.322-3.221 1.94-4.809l-5.688-.661c-.795 1.851-1.546 3.66-2.289 5.47h-37.915c0 0 .708-2.337.838-2.826.22-.836.354-1.144.354-2.027 0-1.98-1.231-3.216-2.95-4.186-.045-.042-.09-.088-.09-.088-.182-.127-.312-.356-.312-.571 0-.354.357-.708.708-.708h1.365 6.966v-5.554h-7.624-2.119c-3.039.047-5.508 2.559-5.508 5.599 0 2.248 1.366 4.274 3.441 5.157h.084c.263.134.397.351.397.662v.131.045c-1.764 5.906-5.291 17.675-5.291 17.675l-1.736 6.04c-.574 1.849-1.146 3.705-1.72 5.555-.794 2.379-2.777 4.188-5.157 5.82-.134.087-.217.173-.307.216-.527.398-.885 1.015-.885 1.722 0 1.103.975 2.07 2.115 2.07.093 0 .307 0 .398-.037 3.97-1.107 7.977-4.371 9.21-8.253.4-1.226.753-2.461 1.107-3.654 0 0 2.442-8.288 2.664-8.995 7.932 5.466 15.866 10.892 23.755 16.312v.088c-.222.833-.35 1.627-.35 2.468 0 4.584 3.744 8.333 8.331 8.333 1.274 0 1.538-.09 2.732-.486.571 1.1 1.14 2.203 1.722 3.259h2.286c-.706-1.409-1.409-2.819-2.074-4.231 1.727-1.141 2.867-2.774 3.402-4.805h.044 23.12c1.106 0 2.072-.966 2.072-2.069.003-.31-.044-.617-.128-.881m-63.48-22.92c.396-1.324.793-2.649 1.145-3.972h37.465c-2.636 6.481-5.284 12.959-7.885 19.439h-.093-.349c-.842 0-1.769.133-2.562.403-.087.039-.13.039-.178.039-.565-1.102-1.097-2.164-1.627-3.22h-2.332c.703 1.412 1.407 2.823 2.073 4.188-.224.131-.397.261-.578.392-8.371-5.772-16.748-11.543-25.08-17.269m30.28 29.358c-3.046 0-5.556-2.521-5.556-5.558 0-3.086 2.508-5.555 5.556-5.555 3.044 0 5.549 2.469 5.549 5.555 0 3.037-2.505 5.558-5.549 5.558m8.07-7.672c-.441-1.639-1.193-2.871-2.428-4.061 0 0-.047-.044-.095-.08 2.738-6.834 5.511-13.711 8.292-20.589 1.719 3.304 5.25 9.917 5.25 9.917 0 0 2.997 5.512 2.95 5.555 1.679 3.13 3.303 6.213 4.937 9.297l-18.906-.039" fill="#fff"/><g fill="#a25cc6"><path d="m55.829 37.798h8.327v-2.779h-2.909l-.037-.044c-.403-.434-.977-.662-1.544-.662-.58 0-1.104.227-1.503.662l-.041.044h-2.293c0 .931 0 1.855 0 2.779"/><path d="m76.04 60.01h-8.334v2.779h2.901c.442.44.977.661 1.59.661.573 0 1.145-.265 1.545-.702h2.298v-2.738"/></g><path d="m84.15 11.437c3.044 0 5.513-2.511 5.513-5.552v-.045h-19.441c-.711 0-1.366.662-1.366 1.415 0 .614.392 1.145 1.012 1.321 2.712.709 5.432 1.419 8.142 2.089.15.037 5.989.735 6.14.772" fill="#e3cdee"/></g></svg>

<?xml version="1.0" encoding="UTF-8" standalone="no"?>
<svg width="120px" height="120px" viewBox="0 0 120 120" version="1.1" xmlns="http://www.w3.org/2000/svg" xmlns:xlink="http://www.w3.org/1999/xlink" xmlns:sketch="http://www.bohemiancoding.com/sketch/ns">
    <!-- Generator: Sketch 3.0.4 (8053) - http://www.bohemiancoding.com/sketch -->
    <title>team-activities</title>
    <desc>Created with Sketch.</desc>
    <defs></defs>
    <g id="Icons" stroke="none" stroke-width="1" fill="none" fill-rule="evenodd" sketch:type="MSPage">
        <g id="team-activities" sketch:type="MSArtboardGroup" stroke-width="2" stroke="#A25CC6">
            <g id="bicycle" sketch:type="MSLayerGroup" transform="translate(1.000000, 25.000000)">
                <g id="Group" sketch:type="MSShapeGroup">
                    <path d="M20.872,27.973 C9.344,27.973 0,37.317 0,48.845 C0,60.371 9.344,69.716 20.872,69.716 C32.399,69.716 41.743,60.371 41.743,48.845 C41.743,37.317 32.398,27.973 20.872,27.973 L20.872,27.973 Z M20.872,63.453 C12.892,63.453 6.424,56.985 6.424,49.005 C6.424,41.026 12.892,34.558 20.872,34.558 C28.851,34.558 35.32,41.027 35.32,49.005 C35.319,56.985 28.851,63.453 20.872,63.453 L20.872,63.453 Z" id="Shape" fill="#E3CDEE"></path>
                    <path d="M97.129,27.973 C85.602,27.973 76.257,37.318 76.257,48.845 C76.257,60.371 85.602,69.716 97.129,69.716 C108.655,69.716 118,60.371 118,48.845 C118,37.317 108.655,27.973 97.129,27.973 L97.129,27.973 Z M97.129,63.453 C89.15,63.453 82.68,56.985 82.68,49.005 C82.68,41.026 89.15,34.558 97.129,34.558 C105.108,34.558 111.577,41.027 111.577,49.005 C111.577,56.985 105.107,63.453 97.129,63.453 L97.129,63.453 Z" id="Shape" fill="#E3CDEE"></path>
                    <path d="M99.116,48.027 C96.821,43.707 89.35,29.598 89.35,29.598 C86.966,25.149 84.588,20.694 82.208,16.244 C82.869,14.612 83.53,13.023 84.148,11.435 L78.46,10.774 C77.665,12.625 76.914,14.434 76.171,16.244 L38.256,16.244 C38.256,16.244 38.964,13.907 39.094,13.418 C39.314,12.582 39.448,12.274 39.448,11.391 C39.448,9.411 38.217,8.175 36.498,7.205 C36.453,7.163 36.408,7.117 36.408,7.117 C36.226,6.99 36.096,6.761 36.096,6.546 C36.096,6.192 36.453,5.838 36.804,5.838 L38.169,5.838 L45.135,5.838 L45.135,0.284 L37.511,0.284 L35.392,0.284 C32.353,0.331 29.884,2.843 29.884,5.883 C29.884,8.131 31.25,10.157 33.325,11.04 L33.409,11.04 C33.672,11.174 33.806,11.391 33.806,11.702 L33.806,11.833 L33.806,11.878 C32.042,17.784 28.515,29.553 28.515,29.553 L26.779,35.595 C26.205,37.444 25.633,39.3 25.059,41.15 C24.265,43.529 22.282,45.338 19.902,46.97 C19.768,47.057 19.685,47.143 19.595,47.186 C19.068,47.584 18.71,48.201 18.71,48.908 C18.71,50.011 19.685,50.978 20.825,50.978 C20.918,50.978 21.132,50.978 21.223,50.941 C25.193,49.834 29.2,46.57 30.433,42.688 C30.833,41.462 31.186,40.227 31.54,39.034 C31.54,39.034 33.982,30.746 34.204,30.039 C42.136,35.505 50.07,40.931 57.959,46.351 L57.959,46.439 C57.737,47.272 57.609,48.066 57.609,48.907 C57.609,53.491 61.353,57.24 65.94,57.24 C67.214,57.24 67.478,57.15 68.672,56.754 C69.243,57.854 69.812,58.957 70.394,60.013 L72.68,60.013 C71.974,58.604 71.271,57.194 70.606,55.782 C72.333,54.641 73.473,53.008 74.008,50.977 L74.052,50.977 L97.172,50.977 C98.278,50.977 99.244,50.011 99.244,48.908 C99.247,48.598 99.2,48.291 99.116,48.027 L99.116,48.027 Z M35.641,25.107 C36.037,23.783 36.434,22.458 36.786,21.135 L74.251,21.135 C71.615,27.616 68.967,34.094 66.366,40.574 L66.273,40.574 L65.924,40.574 C65.082,40.574 64.155,40.707 63.362,40.977 C63.275,41.016 63.232,41.016 63.184,41.016 C62.619,39.914 62.087,38.852 61.557,37.796 L59.225,37.796 C59.928,39.208 60.632,40.619 61.298,41.984 C61.074,42.115 60.901,42.245 60.72,42.376 C52.349,36.604 43.972,30.833 35.641,25.107 L35.641,25.107 Z M65.925,54.465 C62.879,54.465 60.369,51.944 60.369,48.907 C60.369,45.821 62.877,43.352 65.925,43.352 C68.969,43.352 71.474,45.821 71.474,48.907 C71.474,51.944 68.969,54.465 65.925,54.465 L65.925,54.465 Z M73.993,46.793 C73.552,45.154 72.8,43.922 71.565,42.732 C71.565,42.732 71.518,42.688 71.47,42.652 C74.208,35.818 76.981,28.941 79.762,22.063 C81.481,25.367 85.012,31.98 85.012,31.98 C85.012,31.98 88.009,37.492 87.962,37.535 C89.641,40.665 91.265,43.748 92.899,46.832 L73.993,46.793 L73.993,46.793 Z" id="Shape" fill="#FFFFFF"></path>
                    <path d="M55.829,37.798 L64.156,37.798 L64.156,35.019 L61.247,35.019 L61.21,34.975 C60.807,34.541 60.233,34.313 59.666,34.313 C59.086,34.313 58.562,34.54 58.163,34.975 L58.122,35.019 L55.829,35.019 C55.829,35.95 55.829,36.874 55.829,37.798 L55.829,37.798 Z" id="Shape" fill="#A25CC6"></path>
                    <path d="M76.041,60.013 L67.707,60.013 L67.707,62.792 L70.608,62.792 C71.05,63.232 71.585,63.453 72.198,63.453 C72.771,63.453 73.343,63.188 73.743,62.751 L76.041,62.751 L76.041,60.013 L76.041,60.013 Z" id="Shape" fill="#A25CC6"></path>
                    <path d="M84.149,11.437 C87.193,11.437 89.662,8.926 89.662,5.885 L89.662,5.84 L70.221,5.84 C69.51,5.84 68.855,6.502 68.855,7.255 C68.855,7.869 69.247,8.4 69.867,8.576 C72.579,9.285 75.299,9.995 78.009,10.665 C78.159,10.702 83.998,11.4 84.149,11.437" id="Shape" fill="#E3CDEE"></path>
                </g>
            </g>
        </g>
    </g>
</svg>
